Simply-Red-Circles/scalable/actions/color-select.svg

<svg xmlns="http://www.w3.org/2000/svg" viewBox="0 0 24 24"><path fill="#a02c2c" d="M.107 21.712c0-1.242 1.01-2.25 2.25-2.25.983 0 1.5-.867 1.5-1.5.915.69 1.5 1.871 1.5 3a3 3 0 0 1-3 3 2.252 2.252 0 0 1-2.25-2.25m23.705-19.12L21.477.257a1.002 1.002 0 0 0-1.415 0l-3.125 3.125-1.915-1.92-1.415 1.415 1.42 1.42-8.92 8.915v4.75h4.75l8.92-8.92 1.415 1.42 1.415-1.415-1.92-1.92 3.125-3.125a.987.987 0 0 0 0-1.41m-13.785 13.37l-1.92-1.92 8.065-8.065 1.92 1.92-8.065 8.065"/></svg>

<?xml version="1.0" encoding="UTF-8" standalone="no"?>
<svg
   xmlns:dc="http://purl.org/dc/elements/1.1/"
   xmlns:cc="http://creativecommons.org/ns#"
   xmlns:rdf="http://www.w3.org/1999/02/22-rdf-syntax-ns#"
   xmlns:svg="http://www.w3.org/2000/svg"
   xmlns="http://www.w3.org/2000/svg"
   xmlns:sodipodi="http://sodipodi.sourceforge.net/DTD/sodipodi-0.dtd"
   xmlns:inkscape="http://www.inkscape.org/namespaces/inkscape"
   viewBox="0 0 24 24"
   version="1.1"
   id="svg4"
   sodipodi:docname="color-select.svg"
   inkscape:version="0.92.4 (5da689c313, 2019-01-14)">
  <metadata
     id="metadata10">
    <rdf:RDF>
      <cc:Work
         rdf:about="">
        <dc:format>image/svg+xml</dc:format>
        <dc:type
           rdf:resource="http://purl.org/dc/dcmitype/StillImage" />
        <dc:title></dc:title>
      </cc:Work>
    </rdf:RDF>
  </metadata>
  <defs
     id="defs8" />
  <sodipodi:namedview
     pagecolor="#ffffff"
     bordercolor="#666666"
     borderopacity="1"
     objecttolerance="10"
     gridtolerance="10"
     guidetolerance="10"
     inkscape:pageopacity="0"
     inkscape:pageshadow="2"
     inkscape:window-width="1078"
     inkscape:window-height="480"
     id="namedview6"
     showgrid="false"
     inkscape:zoom="9.8333333"
     inkscape:cx="-0.81355932"
     inkscape:cy="12"
     inkscape:window-x="0"
     inkscape:window-y="28"
     inkscape:window-maximized="0"
     inkscape:current-layer="svg4" />
  <path
     d="m 0.1,21.71 a 2.25,2.25 0 0 1 2.26,-2.25 c 0.98,0 1.5,-0.87 1.5,-1.5 0.91,0.7 1.5,1.87 1.5,3 a 3,3 0 0 1 -3,3 A 2.25,2.25 0 0 1 0.1,21.71 M 23.8,2.6 21.48,0.26 a 1,1 0 0 0 -1.42,0 L 16.94,3.38 15.02,1.46 13.61,2.88 15.03,4.3 6.1,13.2 v 4.75 h 4.75 L 19.77,9.03 21.18,10.45 22.6,9.04 20.68,7.12 23.8,4 a 0.99,0.99 0 0 0 0,-1.4 M 10.03,15.95 8.1,14.04 16.16,5.98 18.1,7.9 10.04,15.96"
     id="path2"
     inkscape:connector-curvature="0"
     style="fill:#a02c2c" />
</svg>
